!!!COM: Claude Goudimel
!!!OMD: Psalm 81: Chantez gayement
**kern	**kern	**kern	**kern
*part4	*part3	*part2	*part1
*staff4	*staff3	*staff2	*staff1
*I"bassus	*I"tenor	*I"contra	*I"superius
*clefF4	*clefC4	*clefC3	*clefC1
!!LO:TX:omd:t=
*M2/2	*M2/2	*M2/2	*M2/2
*met(c|)	*met(c|)	*met(c|)	*met(c|)
=1	=1	=1	=1
1GG	1G	1G	1d
=2	=2	=2	=2
1C	1G	1E	1c
=3	=3	=3	=3
2AA	2A	2E	2c
2GG	2B	2G	2d
=4	=4	=4	=4
1C	1c	1G	1e
=5	=5	=5	=5
1C	1c	1G	1e
=6	=6	=6	=6
1GG	1B	1G	1d
=7	=7	=7	=7
2D	2A	2F#X	2d
2E	2G	[2G	2B
=8	=8	=8	=8
1D	1A	2G]	1d
.	.	2F#X	.
=9	=9	=9	=9
1GG	1G	1G	1d
=10	=10	=10	=10
1r	1r	1r	1r
=11	=11	=11	=11
1GG	1G	1B	1d
=12	=12	=12	=12
1C	1G	1c	1e
=13	=13	=13	=13
2AA	2A	2c	2e
2GG	2B	2d	2g
=14	=14	=14	=14
1C	1c	1e	1g
=15	=15	=15	=15
2C	2G	2c	2e
2FF	2A	2c	2f
=16	=16	=16	=16
1C	1G	1c	1e
=17	=17	=17	=17
1D	1F	1A	1d
=18	=18	=18	=18
1AA	1E	1A	1c
=19	=19	=19	=19
1r	1r	1r	1r
=20	=20	=20	=20
2C	2G	2c	2e
2FF	2A	2c	2f
=21	=21	=21	=21
1C	1G	1c	1e
=22	=22	=22	=22
1D	1F	1A	1d
=23	=23	=23	=23
1AA	1E	1A	1c
=24	=24	=24	=24
2AA	2A	2E	2c
2C	2G	2E	2c
=25	=25	=25	=25
2FF	2F	2A	2c
2C	2E	2G	[2c
=26	=26	=26	=26
1GG	1D	1G	2c]
.	.	.	2B
=27	=27	=27	=27
1C;	1C;	1G;	1c;
==	==	==	==
*-	*-	*-	*-
!!!software: music21 v.9.7.1
!!!software: music21 v.9.1.0
!!!RDF**kern: > = above
!!!RDF**kern: < = below
